X:21
T:Over the Waterfall
B:Complete Tractor, p.142
M:4/4
L:1/8
Z:abc-transcription Josh Larios <hades@elsewhere.org>, 2014.01.17
% Changed m10 and 14 to drop to D instead of E, because come on
K:D
e2 |:"D"f2a2 "A"gf e2 | "D"de dB A2e2 | "D"f2a2 "A"gf e2 | "D"d2 dc d2e2 |
"D"f2a2 "A"gf e2 | "D"de dB A2B2 | "C"=c3cB2A2 | "G"G4G2FG ::
"D"A2AF"G"B2BG | "D"AB AG FD FG | "D"A2d2"A"cde2 | "D"[d2f2][df][df][d2f2]FG |
"D"[F2A2]AF"G"[G2B2]BG | "D"[FA]B AG FD FG | "A"AB AG F2E2 | "D"D4D2 :|

